X:1
T:The Sunset Gate
T:Daniel Brink Towner
T:The Sunset Gate
T:Public Domain
T:Public Domain
T:Public Domain
C:Daniel Brink Towner
Z:Public Domain
%%score ( 1 2 ) ( 3 4 )
L:1/8
M:4/4
K:Eb
V:1 treble 
V:2 treble 
V:3 bass 
V:4 bass 
V:1
 E[EF] | [EG]2 [EG]2 [EA]2 [EF]2 | [EB]3 [EA] [EG]2 E[EF] | [EG]2 [EG]2 [DA]2 [DF]2 | E6 E[EF] | %5
w: 1.~I am|’ling tow’rd the sun-|set gate, I’m a pil-|go- ing home; For|the glow of|
w: 2.~There is|quil rest when day|is done, I shall lay|down in peace; When|the end is|
w: 3.~By the|of those most near|and dear, I shall drop|toil and care; When|the Mas- ter’s|
w: 4.~I shall|a- gain at morn-|ing dawn, I shall put|glo- ry then; With|the shad- owy|
 [EG]2 [EG]2 [EA]2 [EF]2 | [EB]3 [EA] [EG]2 E[EF] | (GA)(Bc) [EG]2 [DF]2 | E6 || %9
w: tide I wait, I’m|a pil- grim go- ing|||
w: set of sun, I|shall lay me down in|||
w: voice I hear, I|shall drop life’s toil and|Even- * ing * bells I|hear|
w: death un- drawn, I|shall put on glo- ry|||
"^Refrain" (3(GA)[EB] | ([Ac]4 cd)([Ae][Ec]) | (EF)(ED) [EB]2 [EG][EG] | (DE)(FE) (Ac)(BA) | %13
w: ||||
w: ||||
w: the * sun-|gate * * draws *|Even- * ing * bells I seem|As * the * sun- * set *|
w: ||||
 [EG]6 (3(GA)[EB] | ([Ac]4 cd)([Ae][Ec]) | (EF)(ED) [EB]2 E[EF] | (GA)(Bc) [EG]2 [DF]2 | E6 |] %18
w: |||||
w: |||||
w: |||||
w: |||||
V:2
 E x | x8 | x6 E x | x8 | E6 E x | x8 | x6 E x | E2 E2 x4 | E6 || E2 | x4 A2 x2 | B2 B2 x4 | %12
w: trav-||grim||ev- en-||home.||||||
w: tran-||me||reached at||peace.||||||
w: side||life’s||ten- der||care.|seem to|As|set|near!|to hear|
w: rise||on||veil of||then.||||||
 A2 A2 D2 D2 | x6 E2 | x4 A2 x2 | B2 B2 x E x2 | E2 E2 x4 | E6 |] %18
w: ||||||
w: ||||||
w: gate draws near! *||||||
w: ||||||
V:3
 [E,G,][E,A,] | [E,B,]2 [E,B,]2 [E,C]2 [E,A,]2 | [E,G,]3 [E,C] [E,B,]2 [E,G,][E,A,] | %3
 [E,B,]2 [E,B,]2 [B,,B,]2 [B,,A,]2 | [E,G,]6 [E,G,][E,A,] | [E,B,]2 [E,B,]2 [E,C]2 [E,A,]2 | %6
 [E,G,]3 [E,C] [E,B,]2 [E,G,][E,A,] | (E,F,)(G,A,) (EB,)(B,A,) | [E,G,]6 || (3(E,F,)[G,B,] | %10
 (A,B,A,B, ED)(CA,) | ([E,G,][A,C])([G,B,][F,A,]) [E,G,]2 [E,B,][E,B,] | %12
 (B,,C,)(D,C,) (B,,A,)(G,F,) | (E,2 B,,2 E,2) (3(E,F,)[G,B,] | (A,B,A,B, ED)(CA,) | %15
 ([E,G,][A,C])([G,B,][F,A,]) [E,G,]2 [E,G,][E,A,] | (E,F,)(G,A,) (EB,)(B,A,) | [E,G,]6 |] %18
V:4
 x2 | x8 | x8 | x8 | x8 | x8 | x8 | B,2 E2 B,2 B,,2 | x6 || B,2 | E4- A,2 A,2 | x8 | %12
 B,2 B,2 B,2 B,2 | B,6 B,2 | E4- A,2 A,2 | x8 | B,2 E2 B,2 B,,2 | x6 |] %18

